src/components/icons/tiktok.svg

<svg xmlns="http://www.w3.org/2000/svg" width="97" height="97" viewBox="0 0 97 97" fill="none">
  <rect width="97" height="97" rx="15" fill="black"/>
  <path d="M60.0563 19H50.1123V58.5848C50.1123 63.3014 46.2877 67.1756 41.5282 67.1756C36.7686 67.1756 32.944 63.3014 32.944 58.5848C32.944 53.9526 36.6836 50.1624 41.2732 49.9941V40.0558C31.1592 40.2242 23 48.3938 23 58.5848C23 68.8601 31.3292 77.1139 41.6132 77.1139C51.8971 77.1139 60.2262 68.7758 60.2262 58.5848V38.287C63.9659 40.9822 68.5554 42.5825 73.4 42.6667V32.7284C65.9208 32.4757 60.0563 26.4116 60.0563 19Z" fill="white"/>
</svg>

<svg width="97" height="97" fill="none" xmlns="http://www.w3.org/2000/svg"><rect width="97" height="97" rx="5" fill="#000"/><path d="M60.056 19h-9.944v39.585c0 4.716-3.824 8.59-8.584 8.59s-8.584-3.874-8.584-8.59c0-4.632 3.74-8.423 8.33-8.59v-9.94C31.158 40.226 23 48.395 23 58.586c0 10.275 8.33 18.529 18.613 18.529 10.284 0 18.613-8.338 18.613-18.53V38.288a23.258 23.258 0 0 0 13.174 4.38v-9.939C65.92 32.476 60.056 26.412 60.056 19Z" fill="#fff"/></svg>
